assets/cards-tab/Asset/rewardpoints.svg

<svg width="11" height="9" viewBox="0 0 11 9" fill="none" xmlns="http://www.w3.org/2000/svg">
<path fill-rule="evenodd" clip-rule="evenodd" d="M7.42019 2.92182C7.33236 3.35518 7.51516 3.72152 7.82435 4.06627C8.06785 4.33731 8.05642 4.68802 7.80007 4.96352C7.47731 5.3105 7.35664 5.68876 7.43233 6.16977C7.49017 6.53463 7.28737 6.8213 6.92177 6.89129C6.46834 6.97841 6.15343 7.20626 5.93778 7.63589C5.7607 7.98884 5.44151 8.09233 5.09304 7.91438C4.68888 7.70812 4.31614 7.70514 3.91126 7.9114C3.54637 8.0968 3.24004 7.98735 3.04438 7.61207C2.8373 7.21445 2.54954 6.98362 2.1161 6.9047C1.68337 6.82651 1.51271 6.54654 1.57412 6.07893C1.62268 5.71035 1.51699 5.33359 1.27635 5.05883C0.907895 4.63813 0.908609 4.35816 1.27707 3.93522C1.50985 3.66717 1.61839 3.30678 1.57698 2.94714C1.51771 2.4289 1.68052 2.17275 2.15894 2.07968C2.56524 2.00075 2.83516 1.77886 3.02867 1.40581C3.24004 1 3.54566 0.897994 3.95482 1.10425C4.29829 1.27625 4.69245 1.27625 5.03663 1.10499C5.44793 0.900972 5.74998 0.994792 5.96063 1.39986C6.16914 1.80045 6.46691 2.01787 6.89678 2.09531C7.18597 2.14744 7.36306 2.32316 7.4209 2.58675C7.44518 2.69621 7.44232 2.81162 7.42019 2.92182ZM4.05365 3.19798C4.20897 3.38308 4.18482 3.65903 3.99973 3.81434C3.81463 3.96966 3.53868 3.94551 3.38336 3.76042C3.22805 3.57532 3.25219 3.29937 3.43729 3.14406C3.62238 2.98874 3.89834 3.01289 4.05365 3.19798ZM5.74099 5.20885C5.8963 5.39395 5.87216 5.6699 5.68706 5.82521C5.50197 5.98053 5.22601 5.95638 5.0707 5.77129C4.91539 5.58619 4.93953 5.31024 5.12463 5.15493C5.30972 4.99961 5.58568 5.02375 5.74099 5.20885ZM3.1099 5.70326C3.00635 5.57986 3.02245 5.39589 3.14585 5.29235L5.60357 3.23007C5.72697 3.12653 5.91094 3.14263 6.01448 3.26602C6.11802 3.38942 6.10193 3.57339 5.97853 3.67693L3.5208 5.73921C3.39741 5.84275 3.21344 5.82666 3.1099 5.70326Z" fill="url(#paint0_linear_507_2314)" fill-opacity="0.8"/>
<defs>
<linearGradient id="paint0_linear_507_2314" x1="4.39624" y1="11.4209" x2="4.50014" y2="1.65676" gradientUnits="userSpaceOnUse">
<stop stop-color="#999999" stop-opacity="0.1"/>
<stop offset="1" stop-color="white" stop-opacity="0.6"/>
</linearGradient>
</defs>
</svg>

<svg xmlns="http://www.w3.org/2000/svg" width="11" height="9" fill="none" viewBox="0 0 11 9"><path fill="url(#a)" fill-opacity=".8" fill-rule="evenodd" d="M7.42 2.922c-.088.433.095.8.404 1.144.244.271.232.622-.024.898-.323.346-.443.725-.368 1.206.058.365-.145.651-.51.721-.454.087-.769.315-.984.745-.177.353-.496.456-.845.278-.404-.206-.777-.209-1.182-.003-.365.186-.671.076-.867-.299-.207-.398-.494-.628-.928-.707-.433-.078-.603-.358-.542-.826a1.3 1.3 0 0 0-.298-1.02c-.368-.42-.367-.7.001-1.124.233-.268.341-.628.3-.988-.06-.518.104-.774.582-.867.406-.08.676-.301.87-.674q.314-.61.926-.302a1.2 1.2 0 0 0 1.082.001c.41-.204.713-.11.924.295.208.4.506.618.936.695.289.052.466.228.524.492a.8.8 0 0 1 0 .335m-3.366.276a.437.437 0 1 1-.67.562.437.437 0 0 1 .67-.562m1.687 2.01a.437.437 0 1 1-.67.563.437.437 0 0 1 .67-.562m-2.631.495a.29.29 0 0 1 .036-.41L5.604 3.23a.292.292 0 0 1 .375.447L3.52 5.739a.29.29 0 0 1-.411-.036" clip-rule="evenodd"/><defs><linearGradient id="a" x1="4.396" x2="4.5" y1="11.421" y2="1.657" gradientUnits="userSpaceOnUse"><stop stop-color="#999" stop-opacity=".1"/><stop offset="1" stop-color="#fff" stop-opacity=".6"/></linearGradient></defs></svg>
